X: 2179
T: JOHN ROY STUART
Q: "Strathspey."
R: Strathspey.
%R: strathspey
B: James Kerr "Merry Melodies" v.2 p.21 #179
Z: 2016 John Chambers <jc:trillian.mit.edu>
M: C
L: 1/8
K: F
|:\
vC>vFuA>uF vc>vFuA>uF | C>FA>F (D<G)G2 |\
C>FA>F c>Af>d | c>BA>G F/F/F F2 ::\
c>fa>f g>fa>f |
c>fa>f (e<g)g2 |\
[1 c>fa>f g>fa>f | g>fg>a f/f/f f2 :|\
[2 (f<a) (d<f) (c<f) (A<f) | c>BA>G F/F/F F2 |]
